src/icons/files/rome.svg

<svg width="24" height="24" viewBox="0 0 24 24" fill="none" xmlns="http://www.w3.org/2000/svg">
  <path fill="#71717A"
    d="M9.925781 5.679688c.121094.253906.015625.558593-.238281.679687-.015625.007813-.03125.015625-.046875.023437-2.570313.917969-4.402344 3.292969-4.402344 6.078126v.515624H2.34375v-.511718c0-3.949219 2.566406-7.316406 6.1875-8.65625.242188-.089844.515625.019531.628906.261718ZM2.34375 13.949219h2.894531v7.789062H2.34375Zm19.3125-1.484375v.511718h-2.894531v-.511718c0-2.789063-1.832031-5.164063-4.402344-6.082032-.125-.046874-.230469-.140624-.289063-.261718-.054687-.121094-.0625-.261719-.015624-.390625 0-.015625.011718-.035157.015624-.050781l.765626-1.613282c.113281-.238281.386718-.347656.628906-.257812 3.625 1.339844 6.191406 4.707031 6.191406 8.65625Zm-2.894531 1.484375h2.894531v7.789062h-2.894531Zm0 0" />
  <path fill="#ffc905"
    d="M13.839844 2.390625c.160156.023437.300781.117187.375.261719.078125.144531.082031.316406.015625.464844l-.140625.289062-1.074219 2.273438c-.089844.1875-.285156.300781-.492187.289062-.171876-.007812-.347657-.011719-.523438-.011719-.175781 0-.351562.003907-.523438.011719-.207031.011719-.402343-.101562-.492187-.289062L9.910156 3.40625l-.140625-.289062c-.117187-.257813-.011719-.5625.246094-.683594.042969-.019532.09375-.035156.144531-.042969 1.222656-.167969 2.457032-.167969 3.679688 0Zm3.953125 10.074219v9.269531h-2.894531v-9.269531c0-1.539063-1.300782-2.785156-2.898438-2.785156s-2.898438 1.246093-2.898438 2.785156v9.269531H6.207031v-9.269531c0-3.074219 2.59375-5.566406 5.792969-5.566406 3.199219 0 5.792969 2.492187 5.792969 5.566406Zm0 0" />
</svg>

<svg width="24" height="24" viewBox="0 0 24 24" fill="none" xmlns="http://www.w3.org/2000/svg">
<path d="M9.92578 5.67968C10.0469 5.93359 9.94141 6.23828 9.6875 6.35937C9.67188 6.36718 9.65625 6.375 9.64062 6.38281C7.07031 7.30078 5.23828 9.67578 5.23828 12.4609V12.4609C5.23828 12.7457 5.00743 12.9766 4.72266 12.9766H2.85547C2.57285 12.9766 2.34375 12.7475 2.34375 12.4648V12.4648C2.34375 8.51562 4.91016 5.14843 8.53125 3.80859C8.77344 3.71875 9.04688 3.82812 9.16016 4.07031L9.92578 5.67968ZM2.34375 14.9492C2.34375 14.3969 2.79147 13.9492 3.34375 13.9492H4.23828C4.79057 13.9492 5.23828 14.3969 5.23828 14.9492V20.7383C5.23828 21.2906 4.79057 21.7383 4.23828 21.7383H3.34375C2.79147 21.7383 2.34375 21.2906 2.34375 20.7383V14.9492ZM21.6562 12.4648V12.4648C21.6562 12.7475 21.4271 12.9766 21.1445 12.9766H19.2734C18.9908 12.9766 18.7617 12.7475 18.7617 12.4648V12.4648C18.7617 9.67578 16.9297 7.30078 14.3594 6.38281C14.2344 6.33593 14.1289 6.24218 14.0703 6.12109C14.0202 6.01008 14.0094 5.88266 14.0441 5.7629C14.0504 5.74122 14.0555 5.71869 14.064 5.69775V5.69775C14.0687 5.68587 14.0731 5.67386 14.0786 5.6623L14.8359 4.0664C14.9492 3.82812 15.2227 3.71875 15.4648 3.80859C19.0898 5.14843 21.6562 8.51562 21.6562 12.4648ZM18.7617 14.9492C18.7617 14.3969 19.2094 13.9492 19.7617 13.9492H20.6563C21.2085 13.9492 21.6562 14.3969 21.6562 14.9492V20.7383C21.6562 21.2906 21.2085 21.7383 20.6563 21.7383H19.7617C19.2094 21.7383 18.7617 21.2906 18.7617 20.7383V14.9492Z" fill="#71717A"/>
<path d="M13.8398 2.39063C14 2.41406 14.1406 2.50781 14.2148 2.65234C14.293 2.79688 14.2969 2.96875 14.2305 3.11719L14.0898 3.40625L13.0156 5.67969C12.9258 5.86719 12.7305 5.98047 12.5234 5.96875C12.3516 5.96094 12.1758 5.95703 12 5.95703C11.8242 5.95703 11.6484 5.96094 11.4766 5.96875C11.2695 5.98047 11.0742 5.86719 10.9844 5.67969L9.91016 3.40625L9.76953 3.11719C9.65234 2.85938 9.75781 2.55469 10.0156 2.43359C10.0586 2.41406 10.1094 2.39844 10.1602 2.39063C11.3828 2.22266 12.6172 2.22266 13.8398 2.39063ZM17.793 12.4648V21.7344H14.8984V12.4648C14.8984 10.9258 13.5977 9.67969 12 9.67969C10.4023 9.67969 9.10156 10.9258 9.10156 12.4648V21.7344H6.20703V12.4648C6.20703 9.39062 8.80078 6.89844 12 6.89844C15.1992 6.89844 17.793 9.39062 17.793 12.4648Z" fill="#FBBF24"/>
</svg>
